icons/desktop/16/svg/autoplay-slash-16.svg

<svg width="16" height="16" viewBox="0 0 16 16" fill="none" xmlns="http://www.w3.org/2000/svg">
<path fill-rule="evenodd" clip-rule="evenodd" d="M0.220036 1.21973C0.512942 0.926986 0.987741 0.926884 1.28058 1.21973L2.39191 2.33105L2.39289 2.33008L3.46027 3.39648L3.45832 3.39746L6.00031 5.93945V5.9375L9.51789 9.4541L9.51593 9.45508L12.6224 12.5615L12.6243 12.5605L13.6849 13.6221H13.6829L14.7806 14.7197C15.0733 15.0126 15.0733 15.4874 14.7806 15.7803C14.4877 16.0731 14.0129 16.073 13.72 15.7803L12.5286 14.5889C10.7738 15.7993 8.51525 16.3291 6.13605 15.7881C3.63914 15.2201 1.52927 13.4151 0.587224 11.0342C-0.47447 8.35029 -0.0218035 5.58155 1.42511 3.48535L0.220036 2.28027C-0.0728571 1.98738 -0.0728571 1.51262 0.220036 1.21973ZM2.51203 4.57227C1.65514 5.92295 1.2906 7.5811 1.62531 9.27441C2.23149 12.336 5.07891 14.5908 8.19855 14.4971C9.38904 14.4613 10.4996 14.1025 11.4466 13.5068L8.16535 10.2256L6.96222 10.9141C6.53335 11.159 6.00062 10.8502 6.00031 10.3564V8.06055L2.51203 4.57227Z" fill="black"/>
<path d="M8.85187 0.0449219C12.8639 0.470921 16.0003 3.87602 16.0003 8C16.0003 9.739 15.4326 11.3422 14.4876 12.6562L13.4183 11.5859C14.1012 10.557 14.5003 9.32492 14.5003 8C14.5003 4.63502 11.9287 1.85923 8.64875 1.53223C8.27587 1.49511 8.00031 1.16691 8.00031 0.791992C8.00034 0.338062 8.40095 -0.0029892 8.85187 0.0449219Z" fill="black"/>
<path d="M6.96222 5.08594L11.0853 7.44238C11.5167 7.68847 11.5168 8.31055 11.0853 8.55762L10.6429 8.81055L6.90168 5.07031C6.92168 5.07931 6.94322 5.07494 6.96222 5.08594Z" fill="black"/>
<path d="M5.50031 0C5.77617 0.00016002 6.00031 0.224099 6.00031 0.5V3.99902C6.0003 4.04896 5.97328 4.084 5.96027 4.12793L1.87238 0.0400391C1.91622 0.0279894 1.95141 0 2.00129 0H5.50031Z" fill="black"/>
</svg>

<!-- This Source Code Form is subject to the terms of the Mozilla Public
   - License, v. 2.0. If a copy of the MPL was not distributed with this
   - file, You can obtain one at http://mozilla.org/MPL/2.0/. -->
<svg xmlns="http://www.w3.org/2000/svg" width="16" height="16" fill="context-fill" fill-opacity="context-fill-opacity" viewBox="0 0 16 16">
    <path fill-rule="evenodd" d="M.22 1.22a.75.75 0 0 1 1.06 0L2.393 2.33 3.46 3.395l-.002.001L6 5.94v-.002l3.518 3.517-.002.001 3.106 3.107.002-.002 1.06 1.062h-.001l1.098 1.098a.75.75 0 0 1-1.061 1.06l-1.191-1.191c-1.755 1.21-4.014 1.74-6.393 1.2a7.9 7.9 0 0 1-5.549-4.755c-1.061-2.684-.609-5.452.838-7.549L.22 2.28a.75.75 0 0 1 0-1.06m2.292 3.352a6.4 6.4 0 0 0-.887 4.702c.606 3.062 3.454 5.317 6.574 5.223a6.45 6.45 0 0 0 3.248-.99l-3.282-3.281-1.203.688A.643.643 0 0 1 6 10.356V8.061z" clip-rule="evenodd" />
    <path d="M8.852.045C12.864.47 16 3.876 16 8a7.95 7.95 0 0 1-1.512 4.656l-1.07-1.07A6.46 6.46 0 0 0 14.5 8c0-3.365-2.571-6.14-5.851-6.468A.736.736 0 0 1 8 .792c0-.454.4-.795.852-.747M6.962 5.086l4.123 2.356a.642.642 0 0 1 0 1.116l-.442.253-3.741-3.74c.02.008.041.004.06.015M5.5 0a.5.5 0 0 1 .5.5v3.499c0 .05-.027.085-.04.129L1.872.04c.044-.012.08-.04.13-.04z" />
</svg>
